X:155
T: Zou xikou
N: C1651
O: China,Hebei, Zhangbei
S: IV, 99]
R: Xiaodiao. Nann liqing]
M: 2/4
L: 1/16
K: C
d4d2d2 | c3de2e2 | d6e2 | c4A4 |
e4e2e2 | d2d2B2A2 | G6A2 | G6z2 |
A2E2D4- | D4e2e2 | d3eB2A2 | G2E2G2
A2 | c3cc2d2 | A2E2G2E2 | D6E2 | D4z4

@@@ Tune index: 6710
